src/assets/stars-svg.svg

<svg width="27" height="22" viewBox="0 0 22 22" fill="none" xmlns="http://www.w3.org/2000/svg">
<path d="M5.5 12L6.28446 13.5689C6.54995 14.0999 6.68269 14.3654 6.86003 14.5954C7.01739 14.7996 7.20041 14.9826 7.40455 15.14C7.63462 15.3173 7.9001 15.4501 8.43108 15.7155L10 16.5L8.43108 17.2845C7.9001 17.5499 7.63462 17.6827 7.40455 17.86C7.20041 18.0174 7.01739 18.2004 6.86003 18.4046C6.68269 18.6346 6.54995 18.9001 6.28446 19.4311L5.5 21L4.71554 19.4311C4.45005 18.9001 4.31731 18.6346 4.13997 18.4046C3.98261 18.2004 3.79959 18.0174 3.59545 17.86C3.36538 17.6827 3.0999 17.5499 2.56892 17.2845L1 16.5L2.56892 15.7155C3.0999 15.4501 3.36538 15.3173 3.59545 15.14C3.79959 14.9826 3.98261 14.7996 4.13997 14.5954C4.31731 14.3654 4.45005 14.0999 4.71554 13.5689L5.5 12ZM14 1L15.1786 4.06442C15.4606 4.79765 15.6016 5.16426 15.8209 5.47264C16.0153 5.74595 16.254 5.98475 16.5274 6.17909C16.8357 6.39836 17.2024 6.53937 17.9356 6.82138L21 8L17.9356 9.1786C17.2024 9.4606 16.8357 9.6016 16.5274 9.8209C16.254 10.0153 16.0153 10.254 15.8209 10.5274C15.6016 10.8357 15.4606 11.2024 15.1786 11.9356L14 15L12.8214 11.9356C12.5394 11.2024 12.3984 10.8357 12.1791 10.5274C11.9847 10.254 11.746 10.0153 11.4726 9.8209C11.1643 9.6016 10.7976 9.4606 10.0644 9.1786L7 8L10.0644 6.82138C10.7976 6.53937 11.1643 6.39836 11.4726 6.17909C11.746 5.98475 11.9847 5.74595 12.1791 5.47264C12.3984 5.16426 12.5394 4.79765 12.8214 4.06442L14 1Z" stroke="#707070" stroke-width="1" stroke-linecap="round" stroke-linejoin="round"/>
</svg>

<svg width="27" height="22" viewBox="0 0 22 22" fill="none" xmlns="http://www.w3.org/2000/svg"><path d="M5.5 12l.784 1.569c.266.53.399.796.576 1.026a3 3 0 00.545.545c.23.177.495.31 1.026.575L10 16.5l-1.569.785c-.53.265-.796.398-1.026.575a3 3 0 00-.545.545c-.177.23-.31.495-.576 1.026L5.5 21l-.784-1.569c-.266-.53-.399-.796-.576-1.026a3 3 0 00-.545-.545c-.23-.177-.495-.31-1.026-.575L1 16.5l1.569-.784c.53-.266.796-.399 1.026-.576a3 3 0 00.545-.545c.177-.23.31-.495.576-1.026L5.5 12zM14 1l1.179 3.064c.282.734.423 1.1.642 1.409a3 3 0 00.706.706c.309.22.675.36 1.409.642L21 8l-3.064 1.179c-.734.282-1.1.423-1.409.642a3 3 0 00-.706.706c-.22.309-.36.675-.642 1.409L14 15l-1.179-3.064c-.282-.734-.423-1.1-.642-1.409a3 3 0 00-.706-.706c-.309-.22-.675-.36-1.409-.642L7 8l3.064-1.179c.734-.282 1.1-.423 1.409-.642a3 3 0 00.706-.706c.22-.309.36-.675.642-1.409L14 1z" stroke="#707070" stroke-linecap="round" stroke-linejoin="round"/></svg>
